brandFactory_export/1.Light/Data settings_1Light.svg

<?xml version="1.0" encoding="UTF-8"?>
<svg width="24px" height="24px" viewBox="0 0 24 24" version="1.1" xmlns="http://www.w3.org/2000/svg" xmlns:xlink="http://www.w3.org/1999/xlink">
    <title>1.Light/Data settings_1Light</title>
    <g id="Symbols" stroke="none" stroke-width="1" fill="none" fill-rule="evenodd">
        <g id="1.Light/Data-settings_1Light" fill="#5CB615" fill-rule="nonzero">
            <path d="M8.65882353,17.8016807 C10.4436975,17.8016807 11.3512605,16.9142857 11.3512605,15.1630252 C11.3512605,13.4151261 10.4470588,12.5277311 8.65882353,12.5277311 C6.87058824,12.5277311 5.96637725,13.4151261 5.96637725,15.1630252 C5.96302521,16.9142857 6.87058824,17.8016807 8.65882353,17.8016807 Z M12.3428571,15.1630252 C12.3428571,17.4554622 10.9983193,18.7731092 8.65546218,18.7731092 C6.31260504,18.7731092 4.96806723,17.4554622 4.96806723,15.1630252 C4.96806723,12.8705882 6.31260504,11.5563025 8.65546218,11.5563025 C11.0016807,11.5563025 12.3428571,12.8705882 12.3428571,15.1630252 Z M20.2857143,21.902521 C21.8521008,21.4386555 22.6487395,20.8134454 22.6487395,20.0436975 L22.6487395,16.1445378 C22.1142857,16.5478992 21.4117647,16.8941176 20.5848739,17.1361345 C19.1226891,17.5663866 17.2067227,17.8016807 15.1865546,17.8016807 L14.8,17.7983193 C14.7462185,17.794958 14.692437,17.7848739 14.6420168,17.7647059 C14.5983193,17.8991597 14.5647059,18.0436975 14.5142857,18.1680672 L15.405042,19.0420168 C15.9092437,19.5294118 15.9226891,20.3327731 15.4352941,20.8369748 L15.405042,20.8672269 L14.4941176,21.7579832 C13.9731092,22.2621849 13.1462185,22.2621849 12.6285714,21.7579832 L11.7378151,20.8840336 C11.3680672,21.0352941 10.9848739,21.1529412 10.594958,21.2336134 L10.594958,21.9663866 C13.0151261,22.5176471 14.3159664,22.5210084 15.1764706,22.5210084 C17.0890756,22.5310924 18.9042017,22.3092437 20.2857143,21.902521 L20.2857143,21.902521 Z M9.59663866,20.8403361 C9.59663866,20.6016807 9.77478992,20.3966387 10.0134454,20.3596639 C10.5714286,20.2789916 11.112605,20.1142857 11.6201681,19.8722689 C11.8117647,19.7815126 12.0369748,19.8184874 12.1915966,19.9663866 L13.3277311,21.0789916 C13.4554622,21.2033613 13.6605042,21.2033613 13.7915966,21.0789916 L14.702521,20.1848739 C14.7630252,20.1243697 14.8,20.0436975 14.7966387,19.9596639 C14.7966387,19.8756303 14.7630252,19.7915966 14.702521,19.7344538 L13.5630252,18.6218487 C13.4117647,18.4773109 13.3747899,18.2487395 13.4689076,18.0638655 C13.7008403,17.6067227 13.8689076,17.0789916 13.9630252,16.4907563 C14.0033613,16.2521008 14.2117647,16.0806723 14.4537815,16.0806723 L15.989916,16.0806723 C16.1647059,16.0806723 16.3058824,15.9428571 16.3058824,15.7714286 L16.3058824,14.5546218 C16.3058824,14.3831933 16.1647059,14.2420168 15.9932773,14.2453782 L14.4571429,14.2453782 C14.2151261,14.2487395 14.010084,14.0739496 13.9663866,13.8386555 C13.8823529,13.2907563 13.7142857,12.7596639 13.4722689,12.2621849 C13.3781513,12.0773109 13.4151261,11.8487395 13.5663866,11.7042017 L14.702521,10.5915966 C14.7630252,10.5310924 14.8,10.4504202 14.7966387,10.3663866 C14.7966387,10.2823529 14.7630252,10.1983193 14.702521,10.1411765 L13.7915966,9.25042017 C13.6638655,9.12605042 13.4588235,9.12605042 13.3277311,9.25042017 L12.1915966,10.3630252 C12.0403361,10.5109244 11.8117647,10.5478992 11.6201681,10.4571429 C11.112605,10.2151261 10.5714286,10.0504202 10.0134454,9.9697479 C9.77478992,9.93613445 9.59663866,9.73109244 9.59663866,9.48907563 L9.59663866,7.98655462 C9.59327731,7.81512605 9.45210084,7.67731092 9.28067227,7.67731092 L8.03361345,7.67731092 C7.86218487,7.67731092 7.7210084,7.81512605 7.71764706,7.98655462 L7.71764706,9.48907563 C7.71764706,9.72773109 7.5394958,9.92941176 7.30084034,9.9697479 C6.74285714,10.0504202 6.20168067,10.2151261 5.69411765,10.4537815 C5.50252101,10.5478992 5.27394958,10.5109244 5.12268908,10.3630252 L3.98655462,9.25042017 C3.85882353,9.12605042 3.65378151,9.12605042 3.52268908,9.25042017 L2.61176471,10.1411765 C2.5512605,10.2016807 2.51428571,10.2823529 2.51764706,10.3663866 C2.51764706,10.4537815 2.5512605,10.5310924 2.61176471,10.5915966 L3.74453782,11.7008403 C3.90252101,11.8554622 3.93613445,12.0941176 3.82521008,12.2823529 C3.59327731,12.6823529 3.42184874,13.3680672 3.34453782,13.8352941 C3.30084034,14.0739496 3.09579832,14.2453782 2.85378151,14.2420168 L1.32436975,14.2420168 C1.15294118,14.2420168 1.01176471,14.3798319 1.00840336,14.5512605 L1.00840336,15.7714286 C1.00840336,15.9394958 1.14957983,16.0806723 1.32436975,16.0806723 L2.8605042,16.0806723 C3.10252101,16.0806723 3.31092437,16.2554622 3.3512605,16.4907563 C3.42857143,16.9579832 3.6,17.6436975 3.83193277,18.0436975 C3.94285714,18.2319328 3.9092437,18.4739496 3.7512605,18.6252101 L2.61848739,19.7344538 C2.55798319,19.794958 2.5210084,19.8756303 2.52436975,19.9596639 C2.52436975,20.0470588 2.55798319,20.1243697 2.61848739,20.1848739 L3.52941176,21.0789916 C3.65714286,21.2033613 3.86554622,21.2033613 3.99327731,21.0789916 L5.12941176,19.9663866 C5.28067227,19.8184874 5.5092437,19.7815126 5.70084034,19.8756303 C6.16806723,20.1008403 6.70588235,20.2655462 7.30756303,20.3596639 C7.54621849,20.3966387 7.7210084,20.5983193 7.72436975,20.8369748 L7.72436975,22.3394958 C7.72436975,22.5109244 7.86554622,22.6487395 8.04033613,22.6487395 L9.28739496,22.6487395 C9.46218487,22.6487395 9.60336134,22.5109244 9.60336134,22.3394958 L9.59663866,20.8403361 Z M10.0605042,1.59663866 C8.74957983,1.98319328 7.95630252,2.50756303 7.75462185,3.11260504 C7.75798319,3.12268908 7.76806723,3.12941176 7.76806723,3.1394958 C7.9697479,3.74117647 8.7697479,4.26218487 10.0705882,4.64201681 C11.4420168,5.04537815 13.2571429,5.27058824 15.1798319,5.27058824 C17.1058824,5.27058824 18.9210084,5.0487395 20.2890756,4.64201681 C21.5630252,4.26890756 22.3529412,3.76470588 22.5815126,3.18319328 C22.5848739,3.17310924 22.594958,3.16302521 22.6016807,3.15294118 C22.4168067,2.51764706 21.6403361,1.99663866 20.2823529,1.59663866 C18.9109244,1.19327731 17.0957983,0.971428571 15.1697479,0.971428571 C13.2436975,0.971428571 11.4285714,1.19327731 10.0605042,1.59663866 Z M15.4016807,9.45546218 C15.6504202,9.69747899 15.7882353,10.0235294 15.7882353,10.3663866 C15.7882353,10.605042 15.7008403,10.8235294 15.5798319,11.0218487 C17.3277311,10.9915966 19.0218487,10.7865546 20.2957983,10.410084 C21.6605042,10.010084 22.3932773,9.39159664 22.6487395,8.92773109 L22.6487395,4.60504202 C22.1445378,4.99159664 21.4588235,5.31764706 20.5815126,5.57647059 C19.1193277,6.00672269 17.2033613,6.24537815 15.1831933,6.24537815 C13.1663866,6.24537815 11.2504202,6.01008403 9.78823529,5.57647059 C8.89747899,5.31428571 8.20168067,4.98151261 7.69747899,4.58823529 L7.69747899,6.77647059 C7.80840336,6.74621849 7.91596639,6.7092437 8.03697479,6.7092437 L9.28403361,6.7092437 C10.0067227,6.7092437 10.5915966,7.28403361 10.5915966,7.98991597 L10.5915966,9.08907563 C10.9983193,9.17647059 11.3714286,9.2907563 11.7344538,9.43865546 L12.6285714,8.56470588 C13.1495798,8.0605042 13.9731092,8.0605042 14.4941176,8.56470588 C14.4907563,8.56470588 15.4016807,9.45546218 15.4016807,9.45546218 L15.4016807,9.45546218 Z M15.9932773,13.2739496 C16.712605,13.2739496 17.3008403,13.8487395 17.3008403,14.5546218 L17.3008403,15.7747899 C17.3008403,16.1915966 17.0857143,16.5445378 16.7697479,16.7798319 C18.0907563,16.692437 19.3142857,16.5008403 20.2991597,16.2084034 C21.6605042,15.8084034 22.4,15.189916 22.6521008,14.7294118 L22.6521008,10.3529412 C22.1176471,10.7563025 21.4151261,11.0991597 20.5882353,11.3445378 C19.1260504,11.7747899 17.210084,12.010084 15.189916,12.010084 C15.0151261,12.010084 14.8436975,12.0067227 14.6689076,12.0067227 L14.5142857,12.1579832 C14.6621849,12.5042017 14.7798319,12.8806723 14.8705882,13.2773109 L15.9932773,13.2739496 Z M20.5680672,0.668907563 C22.605042,1.26722689 23.6403361,2.20504202 23.6403361,3.45882353 L23.6403361,20.0470588 C23.6403361,21.297479 22.6084034,22.2352941 20.5714286,22.8369748 C19.102521,23.2672269 17.1865546,23.5058824 15.1731092,23.5058824 C14.2756303,23.5058824 12.9176471,23.502521 10.4235294,22.9378151 C10.2016807,23.3411765 9.78151261,23.6268908 9.28403361,23.6268908 L8.03361345,23.6268908 C7.31428571,23.6268908 6.72605042,23.0521008 6.72605042,22.3462185 L6.72605042,21.2436975 C6.33613445,21.1630252 5.95294118,21.0453782 5.58319328,20.8941176 L4.68907563,21.7680672 C4.16806723,22.2722689 3.34117647,22.2722689 2.82352941,21.7680672 L1.91260504,20.8739496 C1.66386555,20.6352941 1.52605042,20.3058824 1.52605042,19.9596639 C1.52605042,19.6134454 1.66386555,19.2907563 1.91260504,19.0487395 L2.79663866,18.1848739 C2.6487395,17.8184874 2.53109244,17.4420168 2.44705882,17.0554622 L1.32436975,17.0554622 C0.605042017,17.0554622 0.0168067227,16.4806723 0.0168067227,15.7747899 L0.0168067227,14.5546218 C0.0168067227,13.8487395 0.605042017,13.2739496 1.32436975,13.2739496 L2.44705882,13.2739496 C2.51764706,12.9579832 2.63193277,12.5310924 2.79663866,12.1478992 L1.91260504,11.2840336 C1.66386555,11.0453782 1.52605042,10.7159664 1.52605042,10.3697479 C1.52605042,10.0268908 1.66386555,9.70084034 1.91260504,9.45882353 L2.82016807,8.56806723 C3.34117647,8.06386555 4.16470588,8.06386555 4.68571429,8.56806723 L5.57983193,9.44201681 C5.94957983,9.2907563 6.33277311,9.17310924 6.72268908,9.09243697 L6.72268908,8.78991597 C6.71260504,8.75294118 6.69915966,8.71596639 6.69915966,8.67563025 L6.69915966,3.45882353 C6.69915966,3.26386555 6.72605042,3.06890756 6.77983193,2.88403361 L6.77983193,2.88067227 C7.06554622,1.91260504 8.07058824,1.16638655 9.76806723,0.668907563 C11.2336134,0.238655462 13.1495798,0 15.1697479,0 C17.189916,0 19.1092437,0.235294118 20.5680672,0.668907563 L20.5680672,0.668907563 Z" id="Data-settings_1Light"></path>
        </g>
    </g>
</svg>

<svg width="24" height="24" viewBox="0 0 24 24" xmlns="http://www.w3.org/2000/svg"><path d="M8.659 17.802c1.785 0 2.692-.888 2.692-2.639 0-1.748-.904-2.635-2.692-2.635-1.788 0-2.693.887-2.693 2.635-.003 1.751.905 2.639 2.693 2.639zm3.684-2.639c0 2.292-1.345 3.61-3.688 3.61-2.342 0-3.687-1.318-3.687-3.61s1.345-3.607 3.687-3.607c2.347 0 3.688 1.315 3.688 3.607zm7.943 6.74c1.566-.464 2.363-1.09 2.363-1.86v-3.898c-.535.403-1.237.75-2.064.991-1.462.43-3.378.666-5.398.666l-.387-.004a.51.51 0 01-.158-.033c-.044.134-.077.279-.128.403l.891.874a1.27 1.27 0 01.03 1.795l-.03.03-.91.891a1.34 1.34 0 01-1.866 0l-.891-.874a6.5 6.5 0 01-1.143.35v.732c2.42.552 3.721.555 4.581.555 1.913.01 3.728-.212 5.11-.618zM9.596 20.84a.49.49 0 01.417-.48c.558-.081 1.1-.246 1.607-.488a.508.508 0 01.572.094l1.136 1.113a.335.335 0 00.464 0l.91-.894a.305.305 0 00.095-.225.312.312 0 00-.094-.226l-1.14-1.112a.476.476 0 01-.094-.558c.232-.457.4-.985.494-1.573a.495.495 0 01.49-.41h1.537a.312.312 0 00.316-.31v-1.216a.31.31 0 00-.313-.31h-1.536a.495.495 0 01-.49-.406 5.517 5.517 0 00-.495-1.577.476.476 0 01.094-.558l1.137-1.112a.305.305 0 00.094-.226.312.312 0 00-.094-.225l-.911-.89a.335.335 0 00-.464 0l-1.136 1.112a.507.507 0 01-.572.094 5.591 5.591 0 00-1.607-.487.485.485 0 01-.416-.48V7.986a.316.316 0 00-.316-.31H8.034a.316.316 0 00-.316.31v1.502c0 .239-.179.44-.417.48-.558.081-1.1.246-1.607.485a.5.5 0 01-.571-.091L3.987 9.25a.335.335 0 00-.464 0l-.911.891a.305.305 0 00-.094.225c0 .088.033.165.094.226L3.745 11.7a.475.475 0 01.08.581c-.232.4-.403 1.086-.48 1.553a.491.491 0 01-.491.407h-1.53a.316.316 0 00-.316.31v1.22c0 .167.142.309.316.309h1.537c.242 0 .45.174.49.41.078.467.249 1.153.48 1.553.112.188.078.43-.08.581l-1.133 1.11a.305.305 0 00-.094.225c0 .087.034.164.094.225l.911.894a.335.335 0 00.464 0l1.136-1.113a.5.5 0 01.572-.09c.467.225 1.005.39 1.607.484a.49.49 0 01.416.477v1.502c0 .172.142.31.316.31h1.247a.312.312 0 00.316-.31l-.006-1.499zm.465-19.243c-1.311.386-2.105.91-2.306 1.516.003.01.013.016.013.026.202.602 1.002 1.123 2.303 1.503 1.371.403 3.186.629 5.109.629 1.926 0 3.741-.222 5.11-.629 1.273-.373 2.063-.877 2.292-1.459.003-.01.013-.02.02-.03-.185-.635-.962-1.156-2.32-1.556C18.911 1.193 17.096.97 15.17.97c-1.926 0-3.741.222-5.11.626zm5.34 7.858c.25.242.387.569.387.911 0 .239-.087.458-.208.656 1.748-.03 3.442-.235 4.716-.612 1.365-.4 2.097-1.018 2.353-1.482V4.605c-.504.387-1.19.713-2.067.971-1.463.43-3.379.67-5.399.67-2.017 0-3.933-.236-5.395-.67-.89-.262-1.586-.594-2.09-.988v2.188c.11-.03.218-.067.339-.067h1.247c.723 0 1.308.575 1.308 1.28v1.1c.406.087.78.202 1.142.35l.895-.874a1.34 1.34 0 011.865 0c-.003 0 .908.89.908.89zm.592 3.819c.72 0 1.308.575 1.308 1.28v1.22c0 .418-.215.77-.531 1.006 1.32-.088 2.544-.28 3.53-.572 1.36-.4 2.1-1.018 2.352-1.479v-4.376c-.534.403-1.237.746-2.064.992-1.462.43-3.378.665-5.398.665-.175 0-.346-.003-.521-.003l-.155.151c.148.346.266.723.357 1.12l1.122-.004zM20.568.669c2.037.598 3.072 1.536 3.072 2.79v16.588c0 1.25-1.032 2.188-3.069 2.79-1.468.43-3.384.669-5.398.669-.897 0-2.255-.003-4.75-.568-.221.403-.641.689-1.139.689h-1.25c-.72 0-1.308-.575-1.308-1.28v-1.103a6.5 6.5 0 01-1.143-.35l-.894.874a1.34 1.34 0 01-1.865 0l-.911-.894a1.263 1.263 0 01-.387-.914c0-.347.138-.67.387-.911l.884-.864a6.97 6.97 0 01-.35-1.13H1.324c-.719 0-1.307-.574-1.307-1.28v-1.22c0-.706.588-1.281 1.307-1.281h1.123c.07-.316.185-.743.35-1.126l-.884-.864a1.267 1.267 0 010-1.825l.907-.89a1.34 1.34 0 011.866 0l.894.873a6.5 6.5 0 011.143-.35V8.79c-.01-.037-.024-.074-.024-.114V3.459c0-.195.027-.39.08-.575v-.003c.287-.968 1.292-1.715 2.99-2.212 1.465-.43 3.38-.669 5.4-.669 2.02 0 3.94.235 5.4.669z" fill="#5CB615" fill-rule="nonzero"/></svg>
